X:1
T:The Bailiff's Daughter of Islington
M:4/8
L:1/8
K:G
 D| GG B B/2c/2| d/2e/2 d/2B/2 G z/2 D/2| GG Bc| d2- d| G| BA G C/2C/2|\
 CC E/2 E C/2| DD GA| B2 G3/2 B/2| DD FA| G2 z||
